flaticon/web-design/testing.svg

<svg xmlns="http://www.w3.org/2000/svg" width="32" height="32" viewBox="0 0 24 24">
    <path d="M 2.179688 5.210938 C 1.972656 5.210938 1.804688 5.378906 1.804688 5.585938 L 1.804688 5.988281 C 1.804688 6.195312 1.972656 6.363281 2.179688 6.363281 C 2.386719 6.363281 2.554688 6.195312 2.554688 5.988281 L 2.554688 5.585938 C 2.554688 5.378906 2.386719 5.210938 2.179688 5.210938 Z M 2.179688 5.210938"/>
    <path d="M 23.023438 1.601562 L 12.175781 1.601562 L 12.175781 0.375 C 12.175781 0.167969 12.007812 0 11.800781 0 C 11.59375 0 11.421875 0.167969 11.421875 0.375 L 11.421875 4.007812 L 0.976562 4.007812 C 0.769531 4.007812 0.601562 4.175781 0.601562 4.382812 L 0.601562 22.019531 C 0.601562 22.226562 0.769531 22.398438 0.976562 22.398438 L 11.421875 22.398438 L 11.421875 23.625 C 11.421875 23.832031 11.59375 24 11.800781 24 C 12.007812 24 12.175781 23.832031 12.175781 23.625 L 12.175781 19.992188 L 23.023438 19.992188 C 23.230469 19.992188 23.398438 19.824219 23.398438 19.617188 L 23.398438 1.980469 C 23.398438 1.773438 23.230469 1.601562 23.023438 1.601562 Z M 11.421875 12.703125 L 11.421875 14.027344 L 9.21875 14.027344 L 10.175781 11.472656 L 11.421875 11.472656 Z M 11.421875 10.722656 L 9.914062 10.722656 C 9.757812 10.722656 9.617188 10.820312 9.5625 10.964844 L 8.324219 14.273438 C 8.28125 14.386719 8.296875 14.519531 8.367188 14.617188 C 8.4375 14.71875 8.550781 14.78125 8.675781 14.78125 L 11.421875 14.78125 L 11.421875 15.53125 L 8.113281 15.53125 C 7.953125 15.53125 7.816406 15.628906 7.761719 15.777344 L 6.269531 19.746094 L 5.566406 19.484375 L 9.042969 10.214844 C 9.097656 10.070312 9.238281 9.96875 9.394531 9.96875 L 11.421875 9.96875 Z M 11.421875 8.691406 L 11.421875 9.21875 L 9.394531 9.21875 C 8.925781 9.21875 8.503906 9.511719 8.339844 9.949219 L 4.730469 19.570312 C 4.695312 19.664062 4.699219 19.765625 4.742188 19.859375 C 4.78125 19.949219 4.859375 20.019531 4.953125 20.054688 L 6.359375 20.582031 C 6.402344 20.597656 6.445312 20.605469 6.492188 20.605469 C 6.644531 20.605469 6.785156 20.511719 6.84375 20.363281 L 8.371094 16.285156 L 11.421875 16.285156 L 11.421875 21.644531 L 1.351562 21.644531 L 1.351562 7.566406 L 11.421875 7.566406 Z M 11.421875 4.785156 L 11.421875 6.8125 L 1.351562 6.8125 L 1.351562 4.761719 L 11.421875 4.761719 Z M 12.175781 9.59375 L 12.175781 9.070312 L 15.40625 9.070312 C 15.890625 9.070312 16.285156 9.460938 16.285156 9.945312 C 16.285156 10.429688 15.890625 10.824219 15.40625 10.824219 L 12.175781 10.824219 Z M 12.175781 15.90625 L 12.175781 13.078125 L 15.808594 13.078125 C 16.734375 13.078125 17.488281 13.832031 17.488281 14.753906 C 17.488281 15.679688 16.734375 16.433594 15.808594 16.433594 L 12.175781 16.433594 Z M 12.175781 17.1875 L 15.808594 17.1875 C 17.148438 17.1875 18.238281 16.09375 18.238281 14.753906 C 18.238281 13.414062 17.148438 12.324219 15.808594 12.324219 L 12.175781 12.324219 L 12.175781 11.574219 L 15.40625 11.574219 C 16.304688 11.574219 17.035156 10.84375 17.035156 9.945312 C 17.035156 9.046875 16.304688 8.316406 15.40625 8.316406 L 12.175781 8.316406 L 12.175781 7.566406 L 15.40625 7.566406 C 16.71875 7.566406 17.785156 8.632812 17.785156 9.945312 C 17.785156 10.488281 17.605469 11 17.265625 11.425781 C 17.199219 11.511719 17.171875 11.625 17.191406 11.734375 C 17.210938 11.839844 17.28125 11.933594 17.375 11.988281 C 18.371094 12.554688 18.988281 13.617188 18.988281 14.753906 C 18.988281 16.511719 17.5625 17.9375 15.808594 17.9375 L 12.175781 17.9375 Z M 22.648438 19.238281 L 12.175781 19.238281 L 12.175781 18.6875 L 15.808594 18.6875 C 17.976562 18.6875 19.742188 16.925781 19.742188 14.753906 C 19.742188 13.484375 19.117188 12.289062 18.089844 11.554688 C 18.382812 11.070312 18.539062 10.511719 18.539062 9.945312 C 18.539062 8.21875 17.132812 6.8125 15.40625 6.8125 L 12.175781 6.8125 L 12.175781 5.160156 L 22.648438 5.160156 Z M 22.648438 4.410156 L 12.175781 4.410156 L 12.175781 2.355469 L 22.648438 2.355469 Z M 22.648438 4.410156"/>
    <path d="M 21.820312 2.804688 C 21.613281 2.804688 21.445312 2.972656 21.445312 3.179688 L 21.445312 3.582031 C 21.445312 3.789062 21.613281 3.957031 21.820312 3.957031 C 22.027344 3.957031 22.195312 3.789062 22.195312 3.582031 L 22.195312 3.179688 C 22.195312 2.972656 22.027344 2.804688 21.820312 2.804688 Z M 21.820312 2.804688"/>
</svg>

<svg xmlns="http://www.w3.org/2000/svg" width="32" height="32" viewBox="0 0 24 24">
    <path d="M2.18 5.21a.375.375 0 0 0-.375.376v.402a.375.375 0 0 0 .75 0v-.402a.375.375 0 0 0-.375-.375zm0 0"/>
    <path d="M23.023 1.602H12.176V.375A.375.375 0 0 0 11.8 0a.378.378 0 0 0-.38.375v3.633H.978a.375.375 0 0 0-.375.375V22.02c0 .207.168.378.375.378h10.445v1.227c0 .207.172.375.379.375a.375.375 0 0 0 .375-.375v-3.633h10.847a.375.375 0 0 0 .375-.375V1.98a.378.378 0 0 0-.375-.378zM11.422 12.703v1.324H9.219l.957-2.554h1.246zm0-1.98H9.914a.377.377 0 0 0-.351.242l-1.239 3.308a.371.371 0 0 0 .043.344c.07.102.184.164.309.164h2.746v.75H8.113a.371.371 0 0 0-.351.246l-1.492 3.97-.704-.263 3.477-9.27a.38.38 0 0 1 .352-.245h2.027zm0-2.032v.528H9.395c-.47 0-.891.293-1.055.73L4.73 19.57a.372.372 0 0 0 .012.29c.04.09.117.16.211.195l1.406.527a.38.38 0 0 0 .485-.219l1.527-4.078h3.05v5.36H1.352V7.566h10.07zm0-3.906v2.027H1.352v-2.05h10.07zm.754 4.809V9.07h3.23a.877.877 0 1 1 0 1.754h-3.23zm0 6.312v-2.828h3.633c.925 0 1.68.754 1.68 1.676 0 .926-.755 1.68-1.68 1.68h-3.633zm0 1.281h3.633c1.34 0 2.43-1.093 2.43-2.433 0-1.34-1.09-2.43-2.43-2.43h-3.633v-.75h3.23a1.63 1.63 0 0 0 1.63-1.629 1.63 1.63 0 0 0-1.63-1.629h-3.23v-.75h3.23a2.38 2.38 0 0 1 2.38 2.38 2.35 2.35 0 0 1-.52 1.48.394.394 0 0 0-.075.308c.02.106.09.2.184.254a3.192 3.192 0 0 1 1.613 2.766 3.183 3.183 0 0 1-3.18 3.184h-3.632zm10.472 2.051H12.176v-.55h3.633a3.937 3.937 0 0 0 3.933-3.934c0-1.27-.625-2.465-1.652-3.2.293-.484.45-1.042.45-1.609a3.137 3.137 0 0 0-3.134-3.133h-3.23V5.16h10.472zm0-14.828H12.176V2.355h10.472zm0 0"/>
    <path d="M21.82 2.805a.375.375 0 0 0-.375.375v.402a.375.375 0 0 0 .75 0V3.18a.375.375 0 0 0-.375-.375zm0 0"/>
</svg>
